img/logo-twitter.svg

<svg fill="none" height="248" viewBox="0 0 250 248" width="250" xmlns="http://www.w3.org/2000/svg" xmlns:xlink="http://www.w3.org/1999/xlink"><clipPath id="a"><path d="m0 0h250v248h-250z"/></clipPath><g clip-path="url(#a)"><path d="m78.62 225.59c94.34 0 145.94-78.16 145.94-145.9399 0-2.22 0-4.4299-.15-6.6299 10.038-7.2609 18.704-16.2513 25.59-26.55-9.361 4.148-19.292 6.8682-29.46 8.0699 10.707-6.4101 18.721-16.4922 22.55-28.3699-10.068 5.9745-21.084 10.1851-32.57 12.45-7.733-8.2232-17.961-13.6684-29.101-15.4929-11.14-1.8246-22.571.0732-32.524 5.3997-9.952 5.3264-17.872 13.7845-22.533 24.0655s-5.804 21.8117-3.252 32.8076c-20.392-1.0223-40.342-6.3216-58.5536-15.554-18.2116-9.2325-34.278-22.1915-47.1564-38.0359-6.5591 11.2916-8.568 24.6586-5.6177 37.3793 2.9503 12.7208 10.6379 23.8389 21.4977 31.0905-8.1626-.242-16.1472-2.4437-23.28-6.4198v.6499c.0032 11.8419 4.1026 23.3189 11.6028 32.4829s17.9395 15.452 29.5472 17.797c-7.5513 2.06-15.4742 2.361-23.16.88 3.2776 10.192 9.6586 19.104 18.2507 25.491s18.9654 9.928 29.6693 10.129c-18.1626 14.274-40.5994 22.023-63.7 22-4.08097-.008-8.15796-.255-12.21-.74 23.4564 15.053 50.7491 23.037 78.62 23" fill="#fff"/></g></svg>

<svg width="250" height="248" viewBox="0 0 250 248" fill="none" xmlns="http://www.w3.org/2000/svg">
<g clip-path="url(#clip0)">
<path d="M78.62 225.59C172.96 225.59 224.56 147.43 224.56 79.6501C224.56 77.4301 224.56 75.2202 224.41 73.0202C234.448 65.7593 243.114 56.7689 250 46.4702C240.639 50.6182 230.708 53.3384 220.54 54.5401C231.247 48.13 239.261 38.0479 243.09 26.1702C233.022 32.1447 222.006 36.3553 210.52 38.6202C202.787 30.397 192.559 24.9518 181.419 23.1273C170.279 21.3027 158.848 23.2005 148.895 28.527C138.943 33.8534 131.023 42.3115 126.362 52.5925C121.701 62.8735 120.558 74.4042 123.11 85.4001C102.718 84.3778 82.768 79.0785 64.5564 69.8461C46.3448 60.6136 30.2784 47.6546 17.4 31.8102C10.8409 43.1018 8.832 56.4688 11.7823 69.1895C14.7326 81.9103 22.4202 93.0284 33.28 100.28C25.1174 100.038 17.1328 97.8363 10 93.8602C10 94.0702 10 94.2901 10 94.5101C10.0032 106.352 14.1026 117.829 21.6028 126.993C29.103 136.157 39.5423 142.445 51.15 144.79C43.5987 146.85 35.6758 147.151 27.99 145.67C31.2676 155.862 37.6486 164.774 46.2407 171.161C54.8328 177.548 65.2061 181.089 75.91 181.29C57.7474 195.564 35.3106 203.313 12.21 203.29C8.12903 203.282 4.05204 203.035 0 202.55C23.4564 217.603 50.7491 225.587 78.62 225.55" fill="white"/>
</g>
<defs>
<clipPath id="clip0">
<rect width="250" height="248" fill="white"/>
</clipPath>
</defs>
</svg>
